X:1
T:Title
%%score { ( 1 4 ) | ( 2 3 ) }
L:1/8
M:3/4
K:D
V:1 treble nm="Grand Piano"
V:4 treble 
V:2 bass 
V:3 bass 
V:1
 z2 z2[Q:1/4=108] FE | D2 F2 [EG]2 | [FA]4 [Fd][Fd] | e2 d2 B2 | d4 [Ac][GB] | [FA]2 [FA]2 [FA]2 | %6
 [GB]2 [FA]2 [F,D]2 | [A,DF]6 | [A,CE]4 [G,CF][K:bass][G,CE] | [F,D]2[K:treble] [A,DF]2 [A,EG]2 | %10
[M:2/4] [DFA]4 |[M:1/4] [Fd][Fd] |[M:3/4] e2 d2 B2 | d4 cB | A2 d2 B2 | A2 F2 D2 | [CE]6 | %17
[M:2/4] D4 |[M:1/4] A>A |[M:3/4] A>B [EGc]2 [CGA]2 | [DFd]4 A>A | A>B [EGc]2 [CGA]2 | [DFd]4 F2 | %23
 B3 A GF | E2 F2 G2 | F6 | F4 FF | z2 z2 G2 |[M:2/4] [Fd]4 |[M:1/4] [Fd][Fd] |[M:3/4] e2 d2 B2 | %31
 d4 cB | A2 d2 B2 | A2 F2 D2 | [CE]6 |[M:6/4] .D6 z6 |] %36
V:2
 z2 z2 [D,A,D][D,G,D] | [D,F,]2 [D,A,D]2 [D,A,]2 | [D,D]4 [D,A,][D,A,] | %3
 [G,B,G]2 [G,B,G]2 [G,DG]2 | [G,B,G]4 [G,D][K:bass][G,D] | [D,D]2 [D,D]2 [D,D]2 | %6
 [D,D]2 [D,D]2 D,2 | A,,6 | A,,4 A,,A,, | D,2 D,2 D,2 |[M:2/4] D,4 |[M:1/4] [D,A,][D,A,] | %12
[M:3/4][K:treble] [G,B,G]2 [G,B,G]2 [G,DG]2 | [G,B,G]4 [G,DA][G,DG] | [A,DF]2 [A,DF]2 [A,DG]2 | %15
 [A,DF]2[K:bass] [A,D]2 [A,,F,]2 | [A,,G,]6 |[M:2/4] [D,F,]4 |[M:1/4] A,>A, | %19
[M:3/4][K:treble] C2[K:bass] z2 z2 | D,4 A,>A, | C2[K:bass] z2 z2 | D,4 F,2 | B,3 A, G,F, | %24
 E,2 F,2 G,2 | [F,B,D]6 | [F,^A,C]4 [F,A,C][F,A,C] | z z/ F/ [A,,A,]2 [A,,A,]2 |[M:2/4] [D,A,]4 | %29
[M:1/4] [D,A,][D,A,] |[M:3/4][K:treble] [G,B,G]2 [G,B,G]2 [G,DG]2 | [G,B,G]4 [G,DA][G,DG] | %32
 [A,DF]2 [A,DF]2 [A,DG]2 | [A,DF]2[K:bass] [A,D]2 [A,,F,]2 | [A,,G,]6 |[M:6/4] .[D,F,]6 z6 |] %36
V:3
 x6 | x6 | x6 | x6 | x5[K:bass] x | x6 | x6 | x6 | x6 | x6 |[M:2/4] x4 |[M:1/4] x2 | %12
[M:3/4][K:treble] x6 | x6 | x6 | x2[K:bass] x4 | x6 |[M:2/4] x4 |[M:1/4] x2 | %19
[M:3/4][K:treble] [A,G]->[A,DG][K:bass] A,2 A,2 | x6 | [A,G]->[A,DG][K:bass] A,2 A,2 | x6 | x6 | %24
 x6 | x6 | x6 | A,,2 z2 z2 |[M:2/4] x4 |[M:1/4] x2 |[M:3/4][K:treble] x6 | x6 | x6 | %33
 x2[K:bass] x4 | x6 |[M:6/4] x12 |] %36
V:4
 x6 | x6 | x6 | x6 | x6 | x6 | x6 | x6 | x5[K:bass] x | x2[K:treble] x4 |[M:2/4] x4 |[M:1/4] x2 | %12
[M:3/4] x6 | x6 | x6 | x6 | x6 |[M:2/4] x4 |[M:1/4] x2 |[M:3/4] x6 | x6 | x6 | x6 | x6 | x6 | x6 | %26
 x6 | [A,CE]2 [CG]2 Bc |[M:2/4] x4 |[M:1/4] x2 |[M:3/4] x6 | x6 | x6 | x6 | x6 |[M:6/4] x12 |] %36

